images/fruition-logo.svg

<svg width="209" height="52" viewBox="0 0 209 52" fill="none" xmlns="http://www.w3.org/2000/svg">
<path d="M67.712 18.768V24.024H77.576V29.1H67.712V39H61.628V13.512H78.404V18.768H67.712ZM92.1625 25.896C91.8985 25.824 91.6345 25.776 91.3705 25.752C91.1305 25.728 90.8905 25.716 90.6505 25.716C89.8585 25.716 89.1865 25.86 88.6345 26.148C88.1065 26.436 87.6745 26.784 87.3385 27.192C87.0265 27.6 86.7985 28.044 86.6545 28.524C86.5105 29.004 86.4385 29.424 86.4385 29.784V39H80.5345V21.072H86.2225V23.664H86.2945C86.7505 22.752 87.3985 22.008 88.2385 21.432C89.0785 20.856 90.0505 20.568 91.1545 20.568C91.3945 20.568 91.6225 20.58 91.8385 20.604C92.0785 20.628 92.2705 20.664 92.4145 20.712L92.1625 25.896ZM106.616 39V36.516H106.544C106.328 36.924 106.04 37.308 105.68 37.668C105.344 38.028 104.936 38.34 104.456 38.604C104 38.868 103.484 39.084 102.908 39.252C102.356 39.42 101.768 39.504 101.144 39.504C99.9439 39.504 98.9239 39.288 98.0839 38.856C97.2679 38.424 96.5959 37.872 96.0679 37.2C95.5639 36.504 95.1919 35.724 94.9519 34.86C94.7359 33.972 94.6279 33.072 94.6279 32.16V21.072H100.568V30.792C100.568 31.296 100.604 31.776 100.676 32.232C100.748 32.688 100.88 33.096 101.072 33.456C101.288 33.816 101.564 34.104 101.9 34.32C102.236 34.512 102.68 34.608 103.232 34.608C104.264 34.608 105.044 34.224 105.572 33.456C106.124 32.688 106.4 31.788 106.4 30.756V21.072H112.304V39H106.616ZM123.329 15.348C123.329 15.804 123.233 16.236 123.041 16.644C122.873 17.028 122.633 17.364 122.321 17.652C122.033 17.94 121.673 18.168 121.241 18.336C120.833 18.504 120.401 18.588 119.945 18.588C118.985 18.588 118.181 18.276 117.533 17.652C116.885 17.004 116.561 16.236 116.561 15.348C116.561 14.916 116.645 14.508 116.813 14.124C116.981 13.716 117.221 13.368 117.533 13.08C117.845 12.792 118.205 12.564 118.613 12.396C119.021 12.204 119.465 12.108 119.945 12.108C120.401 12.108 120.833 12.192 121.241 12.36C121.673 12.528 122.033 12.756 122.321 13.044C122.633 13.332 122.873 13.68 123.041 14.088C123.233 14.472 123.329 14.892 123.329 15.348ZM116.993 39V21.072H122.897V39H116.993ZM133.982 25.5V32.34C133.982 33.18 134.138 33.816 134.45 34.248C134.786 34.656 135.374 34.86 136.214 34.86C136.502 34.86 136.802 34.836 137.114 34.788C137.45 34.74 137.726 34.668 137.942 34.572L138.014 38.892C137.606 39.036 137.09 39.156 136.466 39.252C135.842 39.372 135.218 39.432 134.594 39.432C133.394 39.432 132.386 39.288 131.57 39C130.754 38.688 130.094 38.256 129.59 37.704C129.11 37.128 128.762 36.456 128.546 35.688C128.33 34.896 128.222 34.02 128.222 33.06V25.5H125.342V21.072H128.186V16.356H133.982V21.072H138.194V25.5H133.982ZM147.376 15.348C147.376 15.804 147.28 16.236 147.088 16.644C146.92 17.028 146.68 17.364 146.368 17.652C146.08 17.94 145.72 18.168 145.288 18.336C144.88 18.504 144.448 18.588 143.992 18.588C143.032 18.588 142.228 18.276 141.58 17.652C140.932 17.004 140.608 16.236 140.608 15.348C140.608 14.916 140.692 14.508 140.86 14.124C141.028 13.716 141.268 13.368 141.58 13.08C141.892 12.792 142.252 12.564 142.66 12.396C143.068 12.204 143.512 12.108 143.992 12.108C144.448 12.108 144.88 12.192 145.288 12.36C145.72 12.528 146.08 12.756 146.368 13.044C146.68 13.332 146.92 13.68 147.088 14.088C147.28 14.472 147.376 14.892 147.376 15.348ZM141.04 39V21.072H146.944V39H141.04ZM170.628 29.964C170.628 31.428 170.364 32.76 169.836 33.96C169.308 35.136 168.588 36.144 167.676 36.984C166.764 37.8 165.708 38.436 164.508 38.892C163.308 39.348 162.024 39.576 160.656 39.576C159.312 39.576 158.028 39.348 156.804 38.892C155.604 38.436 154.548 37.8 153.636 36.984C152.748 36.144 152.04 35.136 151.512 33.96C150.984 32.76 150.72 31.428 150.72 29.964C150.72 28.5 150.984 27.18 151.512 26.004C152.04 24.828 152.748 23.832 153.636 23.016C154.548 22.2 155.604 21.576 156.804 21.144C158.028 20.712 159.312 20.496 160.656 20.496C162.024 20.496 163.308 20.712 164.508 21.144C165.708 21.576 166.764 22.2 167.676 23.016C168.588 23.832 169.308 24.828 169.836 26.004C170.364 27.18 170.628 28.5 170.628 29.964ZM164.94 29.964C164.94 29.388 164.844 28.824 164.652 28.272C164.46 27.72 164.184 27.24 163.824 26.832C163.464 26.4 163.02 26.052 162.492 25.788C161.964 25.524 161.352 25.392 160.656 25.392C159.96 25.392 159.348 25.524 158.82 25.788C158.292 26.052 157.848 26.4 157.488 26.832C157.152 27.24 156.888 27.72 156.696 28.272C156.528 28.824 156.444 29.388 156.444 29.964C156.444 30.54 156.528 31.104 156.696 31.656C156.888 32.208 157.164 32.712 157.524 33.168C157.884 33.6 158.328 33.948 158.856 34.212C159.384 34.476 159.996 34.608 160.692 34.608C161.388 34.608 162 34.476 162.528 34.212C163.056 33.948 163.5 33.6 163.86 33.168C164.22 32.712 164.484 32.208 164.652 31.656C164.844 31.104 164.94 30.54 164.94 29.964ZM186.139 39V29.208C186.139 28.704 186.091 28.224 185.995 27.768C185.923 27.312 185.791 26.916 185.599 26.58C185.407 26.22 185.131 25.944 184.771 25.752C184.435 25.536 184.003 25.428 183.475 25.428C182.947 25.428 182.479 25.536 182.071 25.752C181.687 25.944 181.363 26.22 181.099 26.58C180.835 26.94 180.631 27.36 180.487 27.84C180.367 28.296 180.307 28.776 180.307 29.28V39H174.367V21.072H180.091V23.556H180.163C180.379 23.172 180.655 22.8 180.991 22.44C181.351 22.056 181.759 21.732 182.215 21.468C182.695 21.204 183.211 20.988 183.763 20.82C184.315 20.652 184.903 20.568 185.527 20.568C186.727 20.568 187.747 20.784 188.587 21.216C189.427 21.648 190.099 22.212 190.603 22.908C191.131 23.58 191.503 24.36 191.719 25.248C191.959 26.136 192.079 27.024 192.079 27.912V39H186.139Z" fill="white"/>
<rect width="52" height="52" fill="white"/>
<path fill-rule="evenodd" clip-rule="evenodd" d="M35.8386 20.6587L40.563 17.7153L25.0667 8L3 20.8032L8.10571 24.124L14.1296 20.4927L25.9304 27.9873L31.3269 24.3594L19.844 16.9292C19.0566 17.1665 25.0667 13.8594 25.0667 13.8594C25.0667 13.8594 31.5251 18.1709 35.8386 20.6587ZM44.5286 23.4966L38.8906 27.3745V34.7139L25.5283 42.9995L12.0244 34.7139V26.3442L25.5283 34.7139L37.6628 27.1133L37.6125 27.04L45.8423 21.3789L46.2542 21.0957L46.8208 21.9194L46.4089 22.2031L45.5159 22.8174V32.167C45.6638 32.2432 45.7898 32.3555 45.8821 32.4922C45.9875 32.6479 46.0491 32.8354 46.0491 33.0371C46.0491 33.2896 45.9529 33.52 45.7944 33.6938C46.6353 35.6963 46.4983 41.1128 46.4983 41.1128H43.6191C43.6191 41.1128 43.4822 35.6973 44.3228 33.6943C44.1643 33.5205 44.0679 33.29 44.0679 33.0371C44.0679 32.9272 44.0862 32.8218 44.1196 32.7231C44.1479 32.6401 44.1873 32.562 44.2358 32.4907C44.3032 32.3916 44.3884 32.3052 44.4871 32.2363C44.5154 32.2163 44.5449 32.1978 44.5754 32.1807L44.5286 23.4966Z" fill="#0CBA78"/>
<path d="M47.0002 22.1355L45.8022 21.2199L46.165 20.8971L46.8804 21.3862L47.0002 22.1355Z" fill="white"/>
</svg>

<svg xmlns="http://www.w3.org/2000/svg" width="209" height="52" fill="none"><path fill="#fff" d="M67.7 18.77v5.25h9.88v5.08H67.7V39h-6.07V13.5H78.4v5.27H67.7zm24.46 7.13c-.26-.08-.53-.12-.8-.15-.23-.02-.47-.03-.7-.03-.8 0-1.47.14-2.03.43-.52.3-.96.63-1.3 1.04-.3.4-.53.84-.68 1.32-.14.48-.2.9-.2 1.26V39h-5.92V21.07h5.7v2.6h.06c.45-.92 1.1-1.66 1.94-2.24.84-.57 1.8-.86 2.9-.86.25 0 .48 0 .7.03.24.03.43.06.57.1l-.24 5.2zM106.62 39v-2.48h-.08c-.2.4-.5.8-.86 1.15-.34.36-.74.67-1.22.93-.46.27-.98.48-1.55.65-.54.17-1.13.25-1.76.25-1.2 0-2.22-.2-3.06-.64-.8-.44-1.48-1-2-1.66-.52-.7-.9-1.48-1.13-2.34-.2-.9-.32-1.8-.32-2.7v-11.1h5.94v9.73c0 .5.03.98.1 1.43.08.46.2.87.4 1.23.22.36.5.64.83.86.34.2.78.3 1.33.3 1.03 0 1.8-.4 2.34-1.16.55-.77.83-1.67.83-2.7v-9.7h5.9V39h-5.68zm16.7-23.65c0 .45-.1.9-.28 1.3-.17.38-.4.7-.72 1-.3.3-.65.52-1.08.7-.4.15-.84.24-1.3.24-.95 0-1.76-.32-2.4-.95-.66-.65-.98-1.4-.98-2.3 0-.43.08-.84.25-1.23.18-.4.42-.75.73-1.04.3-.3.67-.52 1.08-.68.42-.2.87-.3 1.34-.3.46 0 .9.1 1.3.26.43.17.8.4 1.08.68.3.3.55.64.72 1.05.2.37.3.8.3 1.25zM117 39V21.07h5.9V39H117zm16.98-13.5v6.84c0 .84.16 1.48.47 1.9.34.42.92.62 1.76.62.3 0 .6-.02.9-.07.35-.06.63-.13.84-.23l.07 4.32c-.4.14-.9.26-1.53.35-.63.12-1.25.18-1.88.18-1.2 0-2.2-.14-3.03-.43-.82-.3-1.48-.74-1.98-1.3-.5-.57-.84-1.24-1.05-2-.22-.8-.33-1.68-.33-2.64V25.5h-2.88v-4.43h2.85v-4.7h5.78v4.7h4.2v4.43H134zm13.4-10.15c0 .45-.1.9-.3 1.3-.16.38-.4.7-.7 1-.3.3-.66.52-1.1.7-.4.15-.83.24-1.3.24-.95 0-1.75-.32-2.4-.95-.65-.65-.97-1.4-.97-2.3 0-.43.1-.84.26-1.23.17-.4.4-.75.72-1.04.3-.3.67-.52 1.08-.68.4-.2.85-.3 1.33-.3.45 0 .88.1 1.3.26.42.17.78.4 1.07.68.3.3.55.64.72 1.05.18.37.28.8.28 1.25zM141.04 39V21.07h5.9V39h-5.9zm29.6-9.04c0 1.47-.28 2.8-.8 4-.53 1.18-1.25 2.18-2.16 3.02-.92.82-1.97 1.46-3.17 1.9-1.2.47-2.48.7-3.84.7-1.35 0-2.63-.23-3.86-.7-1.2-.44-2.25-1.08-3.16-1.9-.9-.84-1.6-1.84-2.13-3.02-.52-1.2-.78-2.53-.78-4 0-1.46.26-2.78.8-3.96.52-1.17 1.23-2.17 2.12-2.98.9-.82 1.96-1.44 3.16-1.88 1.23-.43 2.5-.64 3.86-.64 1.36 0 2.65.2 3.85.64 1.2.44 2.26 1.06 3.18 1.88.9.8 1.63 1.8 2.16 2.98.52 1.18.8 2.5.8 3.96zm-5.7 0c0-.57-.1-1.14-.3-1.7-.18-.54-.46-1.02-.82-1.43-.36-.43-.8-.78-1.33-1.04-.54-.28-1.15-.4-1.84-.4-.7 0-1.3.12-1.84.4-.53.25-.97.6-1.33 1.03-.35.4-.6.9-.8 1.44-.17.55-.26 1.12-.26 1.7 0 .57.1 1.13.26 1.7.2.54.46 1.04.82 1.5.36.43.8.78 1.34 1.04.52.28 1.14.4 1.83.4.7 0 1.3-.12 1.83-.4.53-.25.97-.6 1.33-1.03.36-.46.62-.96.8-1.5.18-.57.28-1.13.28-1.7zm21.2 9.04v-9.8c0-.5-.05-.98-.14-1.43-.08-.46-.2-.85-.4-1.2s-.47-.63-.83-.82c-.34-.2-.77-.32-1.3-.32-.52 0-1 .1-1.4.32-.38.2-.7.47-.97.83-.26.36-.47.78-.6 1.26-.13.46-.2.94-.2 1.44V39h-5.93V21.07h5.72v2.5h.06c.22-.4.5-.77.83-1.13.35-.38.76-.7 1.22-.97.47-.27 1-.48 1.54-.65.56-.17 1.14-.25 1.77-.25 1.2 0 2.22.2 3.06.65.83.43 1.5 1 2 1.7.53.66.9 1.44 1.12 2.33.24.9.36 1.77.36 2.66V39h-5.94zM0 0h52v52H0z"/><path fill="#0CBA78" fill-rule="evenodd" d="M35.84 20.66l4.72-2.94L25.06 8 3 20.8l5.1 3.32 6.03-3.63 11.8 7.5 5.4-3.64-11.5-7.43c-.77.24 5.24-3.07 5.24-3.07s6.46 4.3 10.77 6.8zm8.7 2.84l-5.65 3.87v7.34L25.52 43l-13.5-8.3v-8.36l13.5 8.37 12.13-7.6-.05-.06 8.24-5.66.4-.28.58.82-.4.28-.9.62v9.35c.14.07.27.2.36.32.1.15.17.34.17.54 0 .25-.1.48-.26.65.84 2 .7 7.4.7 7.4h-2.88s-.14-5.4.7-7.4c-.16-.18-.25-.4-.25-.66 0-.1.02-.22.05-.32.03-.08.07-.16.12-.23.06-.1.15-.2.25-.26.02-.02.04-.04.08-.06l-.05-8.68z" clip-rule="evenodd"/><path fill="#fff" d="M47 22.14l-1.2-.92.37-.32.7.5.13.74z"/></svg>
